X: 23
T:Strawberry Banks
M:4/4
L:1/8
Q:180
K:G
"G"G2 AG "D"FG Ac|"G"BG Bd gf gd|
"Am"ec AG "D"FG Ac|"G"BG "D"AF "C"GF"D"ED|!
"G"G2 AG "D"FG Ac|"G"BG Bd g3 d|
"Am"ec AG "D"FG Ac|"G"BG "D"AF "G"G4::!
"G"dg g2 ag g2|bg "D"af "C"gf "D"ed|
"Am"ec AG "D"FG Ac|"G"BG "D"AF "C"GF"D"ED|!
"G"dg g2 ag g2|bg "D"af "C"gf "D"ed|
"G"dB (3def "C"gf ga|"G"bg "D"af "G"g4:|
